X: 6
T:Ruban Bleu de Boqueho
R:Avant Deux
C:Traditionnel
H:Festival Boqueho Mai 1998
A:Cotes d'Armor (Bretagne)
Z:J.M HENRY <Jmarchenry:aol.COM>
M:4/4
L:1/8
K:G
G2 G2 d2 dd | d2 c2 d4    | A2 B2 d2 c2 | B2 A2 B2 G2 |
G2 G2 d2 dd | d2 c2 d4    | A2 B2 d2 c2 | B2 A2 G4    |
A2 B2 c2 cc | B2 A2 B2 B2 | G2 A2 B2 B2 | A2 G2 A4    |
A2 B2 c2 cc | B2 A2 B2 B2 | G2 A2 B4    | A4    G4    |]
